src/qt/sss/res/img/ic-submenu-lock.svg

<?xml version="1.0" encoding="UTF-8"?>
<svg width="28px" height="24px" viewBox="0 0 28 24" version="1.1" xmlns="http://www.w3.org/2000/svg" xmlns:xlink="http://www.w3.org/1999/xlink">
    <!-- Generator: Sketch 52.6 (67491) - http://www.bohemiancoding.com/sketch -->
    <title>Sub Menu Locked Copy 2</title>
    <desc>Created with Sketch.</desc>
    <g id="Sub-Menu-Locked-Copy-2" stroke="none" stroke-width="1" fill="none" fill-rule="evenodd">
        <g id="ic-check-locked" transform="translate(4.000000, 0.000000)">
            <path d="M18,10 L18,8 C18,4.6862915 15.3137085,2 12,2 C8.6862915,2 6,4.6862915 6,8 L6,10 L4,10 L4,22 L20,22 L20,10 L18,10 Z M8,8 C8,5.790861 9.790861,4 12,4 C14.209139,4 16,5.790861 16,8 L16,10 L8,10 L8,8 Z M18,20 L6,20 L6,12 L18,12 L18,20 Z" id="Path_18899" fill="#FFFFFF" fill-rule="nonzero"></path>
            <polygon id="Rectangle_4417" points="0 0 24 0 24 24 0 24"></polygon>
        </g>
    </g>
</svg>

<?xml version="1.0" encoding="utf-8"?>
<!-- Generator: Adobe Illustrator 16.0.0, SVG Export Plug-In . SVG Version: 6.00 Build 0)  -->
<!DOCTYPE svg PUBLIC "-//W3C//DTD SVG 1.1//EN" "http://www.w3.org/Graphics/SVG/1.1/DTD/svg11.dtd">
<svg version="1.1" id="Layer_1" xmlns="http://www.w3.org/2000/svg" xmlns:xlink="http://www.w3.org/1999/xlink" x="0px" y="0px"
	 width="28px" height="24px" viewBox="0 0 28 24" enable-background="new 0 0 28 24" xml:space="preserve">
<title>Sub Menu Locked Copy 2</title>
<desc>Created with Sketch.</desc>
<g id="Sub-Menu-Locked-Copy-2">
	<g id="ic-check-locked" transform="translate(4.000000, 0.000000)">
		<path id="Path_18899" fill="#007BFE" d="M18,10V8c0-3.313-2.687-6-6-6S6,4.687,6,8v2H4v12h16V10H18z M8,8c0-2.209,1.791-4,4-4
			s4,1.791,4,4v2H8V8z M18,20H6v-8h12V20z"/>
		<polygon id="Rectangle_4417" fill="none" points="0,0 24,0 24,24 0,24 		"/>
	</g>
</g>
</svg>
